packages/icons/raw/imported/FilesScan.svg

<svg width="32" height="32" viewBox="0 0 32 32" fill="none" xmlns="http://www.w3.org/2000/svg">
<path d="M24.9441 6.97135C25.2044 6.87923 25.3408 6.59351 25.2486 6.33319C25.1565 6.07287 24.8708 5.93652 24.6105 6.02865L24.9441 6.97135ZM23.5 25H8.70917V26H23.5V25ZM25 15.8077V23.5H26V15.8077H25ZM12.1417 14.3077H23.5V13.3077H12.1417V14.3077ZM8.70917 12.1154H9.94935V11.1154H8.70917V12.1154ZM7.20917 23.5V13.6154H6.20917V23.5H7.20917ZM9.94935 12.1154C10.2786 12.1154 10.5455 12.3823 10.5455 12.7115H11.5455C11.5455 11.83 10.8309 11.1154 9.94935 11.1154V12.1154ZM8.70917 11.1154C7.32846 11.1154 6.20917 12.2346 6.20917 13.6154H7.20917C7.20917 12.7869 7.88074 12.1154 8.70917 12.1154V11.1154ZM12.1417 13.3077C11.8124 13.3077 11.5455 13.0408 11.5455 12.7115H10.5455C10.5455 13.593 11.2601 14.3077 12.1417 14.3077V13.3077ZM26 15.8077C26 14.427 24.8807 13.3077 23.5 13.3077V14.3077C24.3284 14.3077 25 14.9792 25 15.8077H26ZM8.70917 25C7.88074 25 7.20917 24.3284 7.20917 23.5H6.20917C6.20917 24.8807 7.32846 26 8.70917 26V25ZM23.5 26C24.8807 26 26 24.8807 26 23.5H25C25 24.3284 24.3284 25 23.5 25V26ZM6.5 20.5H24.9865V19.5H6.5V20.5ZM10.4896 12.0867L24.9441 6.97135L24.6105 6.02865L10.156 11.144L10.4896 12.0867Z" fill="black"/>
</svg>

<svg width="32" height="32" fill="none" xmlns="http://www.w3.org/2000/svg"><path d="M24.944 6.971a.5.5 0 1 0-.334-.942l.334.942ZM23.5 25H8.71v1H23.5v-1Zm1.5-9.192V23.5h1v-7.692h-1Zm-12.858-1.5H23.5v-1H12.142v1Zm-3.433-2.193h1.24v-1H8.71v1ZM7.21 23.5v-9.885h-1V23.5h1Zm2.74-11.385c.33 0 .597.267.597.596h1c0-.881-.715-1.596-1.597-1.596v1Zm-1.24-1a2.5 2.5 0 0 0-2.5 2.5h1a1.5 1.5 0 0 1 1.5-1.5v-1Zm3.433 2.193a.596.596 0 0 1-.596-.597h-1c0 .882.714 1.597 1.596 1.597v-1ZM26 15.808a2.5 2.5 0 0 0-2.5-2.5v1a1.5 1.5 0 0 1 1.5 1.5h1ZM8.71 25a1.5 1.5 0 0 1-1.5-1.5h-1a2.5 2.5 0 0 0 2.5 2.5v-1Zm14.79 1a2.5 2.5 0 0 0 2.5-2.5h-1a1.5 1.5 0 0 1-1.5 1.5v1Zm-17-5.5h18.486v-1H6.5v1Zm3.99-8.413L24.944 6.97l-.334-.942-14.454 5.115.334.943Z" fill="#000"/></svg>
